src/assets/skills/gulp.svg

<svg height="100pt" viewBox="0 0 100 100" width="100pt" xmlns="http://www.w3.org/2000/svg"><path d="m0 0h100v100h-100z" fill="#da4648"/><path d="m59.206 69.674 1.855-3.16s-4.211 1.723-11.259 1.723c-7.052 0-11.199-1.656-11.199-1.656l2.073 3.45.735 10.876c0 1.174 3.832 2.093 8.564 2.093 4.733 0 8.568-.917 8.568-2.093l.667-11.185zm1.793-20.548c-2.242.133-3.362 2.633-4.488 5.265-.418.962-1.838 5.066-2.765 4.558-.928-.505 1.205-3.876 1.805-5.882-.692.508-3.223 2.477-3.877.628-1.043.917-3.292 1.4-3.038-.96-.558 1.006-1.811 2.4-3.323 1.791-1.962-.743 1.153-7.032 1.925-6.728.777.352-.155 1.75-.396 2.316-.542 1.223-1.161 2.794-.743 3.1.7.567 2.636-2.05 2.679-2.098.361-.481 1.398-3.585 2.225-3.228.831.391-2.074 4.495-.991 5.326.221.175 1.118-.087 1.66-.698.35-.35.228-1.225 1.398-4.018 1.179-2.798 2.229-6.289 3.03-6.026.8.262.142 2.049-.149 2.749-1.354 3.144-3.699 8.295-2.597 7.903 1.092-.393 1.661-.393 2.75-1.66 1.089-1.266 1.006-3.36 1.748-3.316.7.042.612.742.437 1.218.7-.787 3.36-2.53 3.975-.829.741 2.006-3.804 4.935-2.667 4.76 1.094-.131 2.881-1.266 3.669-2.312l2.097-18.958s-2.141 1.75-15.635 1.75-15.411-1.704-15.411-1.704l1.787 17.296c.963-2.706 3.231-8.208 6.773-7.991 1.616.087 3.799 3.235 1.918 3.323-.787.043-.875-1.573-1.791-1.792-.698-.133-1.617.394-2.225 1.006-1.179 1.179-3.804 5.852-3.454 8.17.438 2.969 4.104-1.008 4.716-2.187.435-.825.742-3.318 1.656-3.056.962.263-.085 2.842-.787 5.066-.788 2.535-1.179 5.195-2.135 4.889-.963-.304.61-3.579.518-4.147-.912.872-2.575 2.975-4.758 1.922l1.092 10.789s2.973 2.312 11.88 2.312 12.011-2.312 12.011-2.312l1.398-12.493c-1.136 1.138-4.717 3.1-4.935.875-.173-1.791 3.887-4.368 2.841-4.416zm4.594-34.174-7.754 8.165-1.418 5.546c5.486.35 9.301 1.126 9.301 2.023 0 1.223-7.041 2.207-15.723 2.207s-15.721-1-15.721-2.225c0-1.222 7.041-2.229 15.723-2.229 1.234 0 2.461 0 3.686.046l1.636-6.638 8.24-8.735c.199-.262.816-.043 1.382.438.567.435.873 1.004.698 1.266v.088zm-11.182 16.902s-1.525 0-1.778-.234c-.064-.072-.105-.168-.105-.263 0-.168.113-.264.262-.321l.129.219c-.061.017-.085.043-.096.067 0 .121.916.202 1.619.193.697-.009 1.548-.068 1.555-.186 0-.035-.068-.068-.177-.096l.131-.21c.184.059.341.168.341.352 0 .322-.411.374-.671.411-.313.044-1.201.068-1.201.068z" fill="#fff"/></svg>

<?xml version="1.0" encoding="UTF-8" standalone="no"?><!-- Generator: Gravit.io --><svg xmlns="http://www.w3.org/2000/svg" xmlns:xlink="http://www.w3.org/1999/xlink" style="isolation:isolate" viewBox="0 0 100 100" width="100pt" height="100pt"><rect x="0" y="0" width="100" height="100" transform="matrix(1,0,0,1,0,0)" fill="rgb(218,70,72)"/><path d=" M 59.206 69.674 L 61.061 66.514 C 61.061 66.514 56.85 68.237 49.802 68.237 C 42.75 68.237 38.603 66.581 38.603 66.581 L 40.676 70.031 L 41.411 80.907 C 41.411 82.081 45.243 83 49.975 83 C 54.708 83 58.543 82.083 58.543 80.907 L 59.21 69.722 L 59.206 69.674 Z  M 60.999 49.126 C 58.757 49.259 57.637 51.759 56.511 54.391 C 56.093 55.353 54.673 59.457 53.746 58.949 C 52.818 58.444 54.951 55.073 55.551 53.067 C 54.859 53.575 52.328 55.544 51.674 53.695 C 50.631 54.612 48.382 55.095 48.636 52.735 C 48.078 53.741 46.825 55.135 45.313 54.526 C 43.351 53.783 46.466 47.494 47.238 47.798 C 48.015 48.15 47.083 49.548 46.842 50.114 C 46.3 51.337 45.681 52.908 46.099 53.214 C 46.799 53.781 48.735 51.164 48.778 51.116 C 49.139 50.635 50.176 47.531 51.003 47.888 C 51.834 48.279 48.929 52.383 50.012 53.214 C 50.233 53.389 51.13 53.127 51.672 52.516 C 52.022 52.166 51.9 51.291 53.07 48.498 C 54.249 45.7 55.299 42.209 56.1 42.472 C 56.9 42.734 56.242 44.521 55.951 45.221 C 54.597 48.365 52.252 53.516 53.354 53.124 C 54.446 52.731 55.015 52.731 56.104 51.464 C 57.193 50.198 57.11 48.104 57.852 48.148 C 58.552 48.19 58.464 48.89 58.289 49.366 C 58.989 48.579 61.649 46.836 62.264 48.537 C 63.005 50.543 58.46 53.472 59.597 53.297 C 60.691 53.166 62.478 52.031 63.266 50.985 L 65.363 32.027 C 65.363 32.027 63.222 33.777 49.728 33.777 C 36.234 33.777 34.317 32.073 34.317 32.073 L 36.104 49.369 C 37.067 46.663 39.335 41.161 42.877 41.378 C 44.493 41.465 46.676 44.613 44.795 44.701 C 44.008 44.744 43.92 43.128 43.004 42.909 C 42.306 42.776 41.387 43.303 40.779 43.915 C 39.6 45.094 36.975 49.767 37.325 52.085 C 37.763 55.054 41.429 51.077 42.041 49.898 C 42.476 49.073 42.783 46.58 43.697 46.842 C 44.659 47.105 43.612 49.684 42.91 51.908 C 42.122 54.443 41.731 57.103 40.775 56.797 C 39.812 56.493 41.385 53.218 41.293 52.65 C 40.381 53.522 38.718 55.625 36.535 54.572 L 37.627 65.361 C 37.627 65.361 40.6 67.673 49.507 67.673 C 58.414 67.673 61.518 65.361 61.518 65.361 L 62.916 52.868 C 61.78 54.006 58.199 55.968 57.981 53.743 C 57.808 51.952 61.868 49.375 60.822 49.327 L 60.999 49.126 Z  M 65.593 14.952 L 57.839 23.117 L 56.421 28.663 C 61.907 29.013 65.722 29.789 65.722 30.686 C 65.722 31.909 58.681 32.893 49.999 32.893 C 41.317 32.893 34.278 31.893 34.278 30.668 C 34.278 29.446 41.319 28.439 50.001 28.439 C 51.235 28.439 52.462 28.439 53.687 28.485 L 55.323 21.847 L 63.563 13.112 C 63.762 12.85 64.379 13.069 64.945 13.55 C 65.512 13.985 65.818 14.554 65.643 14.816 L 65.643 14.904 L 65.593 14.952 Z  M 54.411 31.854 C 54.411 31.854 52.886 31.854 52.633 31.62 C 52.569 31.548 52.528 31.452 52.528 31.357 C 52.528 31.189 52.641 31.093 52.79 31.036 L 52.919 31.255 C 52.858 31.272 52.834 31.298 52.823 31.322 C 52.823 31.443 53.739 31.524 54.442 31.515 C 55.139 31.506 55.99 31.447 55.997 31.329 C 55.997 31.294 55.929 31.261 55.82 31.233 L 55.951 31.023 C 56.135 31.082 56.292 31.191 56.292 31.375 C 56.292 31.697 55.881 31.749 55.621 31.786 C 55.308 31.83 54.42 31.854 54.42 31.854 L 54.411 31.854 Z " fill="rgb(255,255,255)"/></svg>
